X:2510
T:Hawkshead Rants
O:england
M:6/8
L:1/8
S:Armitt MS
N:Dorian except for last two bars of A and of B music, which is D major.
K:DDor
c|B2B BAG|A3D3|EFED2F|EFED2c|B2B BAG|A3d3|^c2de2^c|d3d3:||:A|d2fe2g|faf
e2c|BcBA2c|BcBA2c|B2B BAG|A3d3|^c2de2^c|d3d3||


